X:1
T:Title
%%score 1 2 3
L:1/8
Q:1/4=60
M:4/4
K:Gb
V:1 treble nm="Pan Flute" snm="Pn. Fl."
V:2 bass nm="Oboe" snm="Ob."
V:3 bass nm="Oboe" snm="Ob."
V:1
 z8 | z8 | z8 | z8 | z8 | z8 | z8 | z8 | b-b/ z/ e-e/.b/ e2 e/.f/.g/.a/ | b2- b/.a/.g/.f/ e4 | %10
 b2- b/.a/.b/.c'/ b2- b/.a/.g/.f/ | .g/.a/.b/.a/ .g/.f/.g/.a/ f4 | %12
 b-b/.a/ g-g/.f/ e-e/.e/ .e/.f/.g/.a/ | b2- b/.a/.b/.c'/ b2- b/.a/.g/.f/ | g2- g/.f/.e/.f/ e4 | %15
 .e/.f/.g/.a/ .g/.f/.g/.a/ b4 | b-b/ z/ e-e/.b/ e2 e/.f/.g/.a/ | b2- b/.a/.g/.f/ e4 | %18
 b2- b/.a/.b/.c'/ b2- b/.a/.g/.f/ | .g/.a/.b/.a/ .g/.f/.g/.a/ f4 | %20
 b-b/.a/ g-g/.f/ e-e/.e/ .e/.f/.g/.a/ | b2- b/.a/.b/.c'/ b2- b/.a/.g/.f/ | g2- g/.f/.e/.f/ e4 | %23
 .e/.f/.g/.a/ .g/.f/.g/.a/ b4 | b-b/ z/ e-e/.b/ e2 e/.f/.g/.a/ | b2- b/.a/.g/.f/ e4 | %26
 b2- b/.a/.b/.c'/ b2- b/.a/.g/.f/ | .g/.a/.b/.a/ .g/.f/.g/.a/ f4 | %28
 b-b/.a/ g-g/.f/ e-e/.e/ .e/.f/.g/.a/ | b2- b/.a/.b/.c'/ b2- b/.a/.g/.f/ | g2- g/.f/.e/.f/ e4 | %31
 .e/.f/.g/.a/ .g/.f/.g/.a/ b4 |] %32
V:2
 G-G/.F/ E-E/.B,/ E2 .E/.F/.E/.B,/ | E-E/.B,/ G,-G,/.C/ E2 .E/.D/.C/.B,/ | %2
 C-C/.B,/ G,-G,/.F,/ E,-E,/.D,/ .E,/.F,/.G,/.A,/ | A,-A,/.G,/ .F,/.E,/.F,/.G,/ F,4 | %4
 G-G/.F/ E-E/.B,/ E2 .E/.F/.E/.B,/ | E-E/.B,/ G,-G,/.C/ E2 .E/.D/.C/.B,/ | %6
 C-C/.B,/ G,-G,/.F,/ E,-E,/.D,/ .E,/.F,/.G,/.A,/ | A,-A,/.G,/ .F,/.E,/.F,/.G,/ F,4 | %8
 G-G/.F/ E-E/.B,/ E2 .E/.F/.E/.B,/ | E-E/.B,/ G,-G,/.C/ E2 .E/.D/.C/.B,/ | %10
 C-C/.B,/ G,-G,/.F,/ E,-E,/.D,/ .E,/.F,/.G,/.A,/ | A,-A,/.G,/ .F,/.E,/.F,/.G,/ F,4 | %12
 G-G/.F/ E-E/.B,/ E2 .E/.F/.E/.B,/ | E-E/.B,/ G,-G,/.C/ E2 .E/.D/.C/.B,/ | %14
 C-C/.B,/ G,-G,/.F,/ E,-E,/.D,/ .E,/.F,/.G,/.A,/ | A,-A,/.G,/ .F,/.E,/.F,/.G,/ F,4 | %16
 G-G/.F/ E-E/.B,/ E2 .E/.F/.E/.B,/ | E-E/.B,/ G,-G,/.C/ E2 .E/.D/.C/.B,/ | %18
 C-C/.B,/ G,-G,/.F,/ E,-E,/.D,/ .E,/.F,/.G,/.A,/ | A,-A,/.G,/ .F,/.E,/.F,/.G,/ F,4 | %20
 G-G/.F/ E-E/.B,/ E2 .E/.F/.E/.B,/ | E-E/.B,/ G,-G,/.C/ E2 .E/.D/.C/.B,/ | %22
 C-C/.B,/ G,-G,/.F,/ E,-E,/.D,/ .E,/.F,/.G,/.A,/ | A,-A,/.G,/ .F,/.E,/.F,/.G,/ F,4 | %24
 G-G/.F/ E-E/.B,/ E2 .E/.F/.E/.B,/ | E-E/.B,/ G,-G,/.C/ E2 .E/.D/.C/.B,/ | %26
 C-C/.B,/ G,-G,/.F,/ E,-E,/.D,/ .E,/.F,/.G,/.A,/ | A,-A,/.G,/ .F,/.E,/.F,/.G,/ F,4 | %28
 G-G/.F/ E-E/.B,/ E2 .E/.F/.E/.B,/ | E-E/.B,/ G,-G,/.C/ E2 .E/.D/.C/.B,/ | %30
 C-C/.B,/ G,-G,/.F,/ E,-E,/.D,/ .E,/.F,/.G,/.A,/ | A,-A,/.G,/ .F,/.E,/.F,/.G,/ F,4 |] %32
V:3
 E,2 E,-E,/.E,/ E,2 E,-E,/.D,/ | C,2 C,-C,/.C,/ C,2 C,-C,/.B,,/ | %2
 A,,2 A,,-A,,/.A,,/ A,,2 A,,-A,,/B,,/ | D,2 D,-D,/C,/ B,,2 B,,2 | E,2 E,-E,/.E,/ E,2 E,-E,/.D,/ | %5
 C,2 C,-C,/.C,/ C,2 C,-C,/.B,,/ | A,,2 A,,-A,,/.A,,/ A,,2 A,,-A,,/B,,/ | D,2 D,-D,/C,/ B,,2 B,,2 | %8
 E,2 E,-E,/.E,/ E,2 E,-E,/.D,/ | C,2 C,-C,/.C,/ C,2 C,-C,/.B,,/ | %10
 A,,2 A,,-A,,/.A,,/ A,,2 A,,-A,,/B,,/ | D,2 D,-D,/C,/ B,,2 B,,2 | E,2 E,-E,/.E,/ E,2 E,-E,/.D,/ | %13
 C,2 C,-C,/.C,/ C,2 C,-C,/.B,,/ | A,,2 A,,-A,,/.A,,/ A,,2 A,,-A,,/B,,/ | D,2 D,-D,/C,/ B,,2 B,,2 | %16
 E,2 E,-E,/.E,/ E,2 E,-E,/.D,/ | C,2 C,-C,/.C,/ C,2 C,-C,/.B,,/ | %18
 A,,2 A,,-A,,/.A,,/ A,,2 A,,-A,,/B,,/ | D,2 D,-D,/C,/ B,,2 B,,2 | E,2 E,-E,/.E,/ E,2 E,-E,/.D,/ | %21
 C,2 C,-C,/.C,/ C,2 C,-C,/.B,,/ | A,,2 A,,-A,,/.A,,/ A,,2 A,,-A,,/B,,/ | D,2 D,-D,/C,/ B,,2 B,,2 | %24
 E,2 E,-E,/.E,/ E,2 E,-E,/.D,/ | C,2 C,-C,/.C,/ C,2 C,-C,/.B,,/ | %26
 A,,2 A,,-A,,/.A,,/ A,,2 A,,-A,,/B,,/ | D,2 D,-D,/C,/ B,,2 B,,2 | E,2 E,-E,/.E,/ E,2 E,-E,/.D,/ | %29
 C,2 C,-C,/.C,/ C,2 C,-C,/.B,,/ | A,,2 A,,-A,,/.A,,/ A,,2 A,,-A,,/B,,/ | D,2 D,-D,/C,/ B,,2 B,,2 |] %32

